usr/share/icons/biglinux-icons-material/16/places/bookmark-missing.svg

<svg width="16" height="16" version="1.1" xmlns="http://www.w3.org/2000/svg">
 <defs>
  <style id="current-color-scheme" type="text/css">.ColorScheme-Text { color:#dedede; }</style>
 </defs>
 <path d="m8.002 0.36523a0.50005 0.50005 0 0 0-0.46875 0.32031l-1.8711 4.8535-5.1875 0.27344a0.50005 0.50005 0 0 0-0.29102 0.88867l4.0352 3.2832-1.334 5.0215a0.50005 0.50005 0 0 0 0.75586 0.54883l4.3594-2.8242 4 2.5918v-1.3223a1.0001 1.0001 0 0 1 0.13477-0.5 1.0001 1.0001 0 0 1-0.13477-0.5v-2.1914l-0.21875-0.82422 0.21875-0.17773v-1.291l-1.0996 0.89648a0.50005 0.50005 0 0 0-0.16797 0.51562l1.084 4.084-3.5449-2.2969a0.50005 0.50005 0 0 0-0.54297 0l-3.5449 2.2969 1.084-4.084a0.50005 0.50005 0 0 0-0.16797-0.51562l-3.2754-2.668 4.2148-0.22266a0.50005 0.50005 0 0 0 0.43945-0.32031l1.5215-3.9453 1.5215 3.9453a0.50005 0.50005 0 0 0 0.43945 0.32031l4.2148 0.22266-0.31445 0.25586h1.1387a1.0001 1.0001 0 0 1 0.36328 0.070312l0.45312-0.36914a0.50005 0.50005 0 0 0-0.29102-0.88867l-5.1875-0.27344-1.8711-4.8535a0.50005 0.50005 0 0 0-0.46484-0.32031z" style="fill:currentColor" class="ColorScheme-Text"/>
 <path class="warning" d="M13 8v5h2V8zm0 6v2h2v-2z" fill="#ff7f2a"/>
</svg>

<svg xmlns="http://www.w3.org/2000/svg" width="16" height="16"><path d="M8.002.365a.5.5 0 0 0-.469.32L5.663 5.54l-5.188.273a.5.5 0 0 0-.291.89l4.035 3.282-1.334 5.022a.5.5 0 0 0 .756.549L8 12.73l4 2.592V14a1 1 0 0 1 .134-.5A1 1 0 0 1 12 13v-2.191l-.219-.825.22-.177V8.516l-1.1.896a.5.5 0 0 0-.168.516l1.084 4.084-3.545-2.297a.5.5 0 0 0-.543 0l-3.545 2.297 1.084-4.084a.5.5 0 0 0-.168-.516L1.824 6.744l4.215-.223a.5.5 0 0 0 .44-.32L8 2.256 9.522 6.2a.5.5 0 0 0 .44.32l4.214.223L13.86 7h1.14a1 1 0 0 1 .362.07l.454-.369a.5.5 0 0 0-.291-.889l-5.188-.273L8.467.686a.5.5 0 0 0-.465-.32z" style="fill:currentColor;color:#dedede"/><path fill="#ff7f2a" d="M13 8v5h2V8zm0 6v2h2v-2z" class="warning"/></svg>
